X: 21386
T: Kerry, The
R: polka
M: 2/4
K: Dmajor
|:fA BA|fA BA|d2 ef|ed BA|fA BA|fA BA|d d/d/ ef|ed d2:|
|:~f3 d|ed BA|d d/d/ ef|ed BA|~f3 d|ed BA|d d/d/ ef|ed d2:|
|:~A3B|~d3e|f>a fd|e/f/e/d/ Bd|~A3B|~d3e|fa fe|d>c d>B:|

